salesforce.svg

<svg fill="currentColor" viewBox="0 0 24 24"><path d="M18.38 6.37c-.7 0-1.31.21-1.91.41-.7-1.21-2.01-2.01-3.42-2.01-1.1 0-2.1.5-2.81 1.2-.8-1-2.01-1.71-3.41-1.71C4.5 4.26 2.5 6.17 2.5 8.5c0 .59.21 1.19.41 1.79A3.68 3.68 0 0 0 1 13.5c0 2 1.61 3.72 3.62 3.72.3 0 .6 0 .8-.1.4 1.51 1.91 2.62 3.72 2.62 1.7 0 3.11-1.01 3.61-2.42.51.21 1.01.41 1.51.41 1.31 0 2.51-.73 3.11-1.81.31.08.63.08.91.08 2.61 0 4.72-2.09 4.72-4.8.1-2.7-2-4.83-4.62-4.83"/></svg>

<svg  viewBox="0 0 24 24" fill="currentColor"><path  d="M18.38,6.37C17.68,6.37 17.07,6.58 16.47,6.78C15.77,5.57 14.46,4.77 13.05,4.77C11.95,4.77 10.95,5.27 10.24,5.97C9.44,4.97 8.23,4.26 6.83,4.26C4.5,4.26 2.5,6.17 2.5,8.5C2.5,9.09 2.71,9.69 2.91,10.29C1.8,10.9 1,12.1 1,13.5C1,15.5 2.61,17.22 4.62,17.22C4.92,17.22 5.22,17.22 5.42,17.12C5.82,18.63 7.33,19.74 9.14,19.74C10.84,19.74 12.25,18.73 12.75,17.32C13.26,17.53 13.76,17.73 14.26,17.73C15.57,17.73 16.77,17 17.37,15.92C17.68,16 18,16 18.28,16C20.89,16 23,13.91 23,11.2C23.1,8.5 21,6.37 18.38,6.37Z"/></svg>
